frontend/public/svg/interface/user-delete.svg

<svg width="158" height="151" viewBox="0 0 158 151" fill="none" xmlns="http://www.w3.org/2000/svg">
<g clip-path="url(#clip0)">
<path d="M121.325 108.081C123.887 105.437 126.412 102.787 128.992 100.192C129.987 99.1471 131.075 98.1955 132.243 97.35C133.8 96.2761 135.463 96.3887 136.536 97.3949C137.105 97.9449 137.449 98.6875 137.502 99.4783C137.555 100.27 137.312 101.052 136.821 101.673C134.846 104.487 132.659 107.155 130.499 109.834C129.467 111.114 128.293 112.281 127.003 113.703C130.044 116.387 132.883 118.852 135.669 121.375C136.688 122.232 137.6 123.209 138.387 124.285C139.057 125.189 139.382 126.304 139.304 127.428C139.226 128.552 138.749 129.611 137.959 130.412C136.423 131.942 133.948 132.056 131.854 130.559C130.982 129.874 130.177 129.108 129.445 128.274C126.839 125.556 124.255 122.817 121.413 119.825C119.387 121.964 117.5 123.951 115.62 125.943C114.536 127.21 113.387 128.419 112.176 129.564C111.204 130.459 110.057 131.141 108.808 131.568C105.621 132.489 103.159 129.974 104.244 126.831C104.865 125.29 105.782 123.887 106.943 122.7C109.178 120.227 111.602 117.932 113.93 115.544C114.466 114.995 114.928 114.373 115.723 113.431C112.792 110.665 109.898 107.953 107.029 105.216C105.954 104.264 104.951 103.232 104.032 102.129C103.622 101.657 103.396 101.053 103.396 100.427C103.395 99.8018 103.62 99.1972 104.028 98.724C104.961 97.5772 106.225 97.1014 107.585 97.7815C109.189 98.5359 110.714 99.4471 112.139 100.501C115.188 102.88 118.115 105.417 121.325 108.081Z" fill="black"/>
<path d="M112.411 80.1008C116.671 79.8775 120.683 79.1518 124.58 79.5508C142.192 81.3537 155.345 94.8461 157.134 112.53C158.744 128.446 150.845 141.541 135.99 147.329C124.924 151.642 113.76 152.324 102.605 147.596C94.8548 144.312 88.8343 139.154 85.39 131.277C85.2181 130.886 84.9754 130.522 84.7172 130.058C81.454 130.234 78.2562 130.414 75.0572 130.579C57.4385 131.479 39.822 132.434 22.1991 133.233C17.4404 133.449 12.6623 133.218 7.89006 133.121C6.7835 133.09 5.68624 132.908 4.62932 132.578C1.50489 131.612 0.466842 129.446 1.5626 126.386C6.26746 113.027 13.5064 100.708 22.8797 90.1097C34.316 77.2227 48.2707 69.0954 65.568 67.3159C77.4012 66.0988 88.7661 68.0924 99.6926 72.7181C102.067 73.6436 104.381 74.7169 106.623 75.9301C108.625 77.2155 110.557 78.6077 112.411 80.1008ZM103.635 84.7375C94.4136 80.5837 85.4977 77.1589 75.6236 76.702C61.885 76.0661 49.4535 79.5339 38.5939 88.0218C26.9233 97.1443 18.374 108.862 11.4621 121.86C11.1625 122.527 10.908 123.213 10.7004 123.915C16.97 124.484 79.4221 120.21 83.3665 118.952C83.4645 118.489 83.6111 117.96 83.6838 117.423C84.6524 110.802 86.8328 104.418 90.1143 98.5931C91.2165 96.6685 92.5886 94.9131 94.1891 93.381C97.0923 90.512 100.202 87.8539 103.635 84.7375ZM119.037 139.209C124.379 139.174 129.652 137.99 134.499 135.736C138.178 134.094 141.259 131.35 143.318 127.879C148.087 119.799 147.169 106.731 141.134 99.5485C136.326 93.8255 130.317 89.8722 122.735 89.2467C113.941 88.5203 106.467 91.6419 101.387 98.9445C96.2989 106.263 95.0721 114.736 96.007 123.496C96.4429 127.081 98.2257 130.363 100.991 132.674C106.135 137.266 112.25 139.17 119.037 139.209Z" fill="black"/>
<path d="M67.6593 59.5718C60.1176 59.2613 52.7302 57.6917 46.2367 53.0692C38.9019 47.848 33.111 38.1333 37.6575 26.0025C38.8032 22.876 40.3556 19.9148 42.2742 17.1962C44.8971 13.603 47.7922 10.2182 50.9338 7.07157C58.0053 -0.0878936 70.0721 -1.86309 78.5942 3.38221C89.7717 10.2605 96.2677 20.5893 97.5445 33.6254C98.3029 41.3635 94.8683 47.9561 88.7401 52.876C82.6613 57.7555 75.508 59.398 67.6593 59.5718ZM66.6479 49.7069C71.3663 49.5878 75.9531 49.0202 80.0636 46.4811C85.6559 43.0277 87.9104 37.3449 86.2346 30.9984C84.9248 26.0375 82.2311 21.8709 78.7674 18.1902C75.3166 14.5233 71.2794 12.0461 66.0264 11.8867C60.2428 11.7109 55.8657 14.8259 51.8369 18.2176C48.8851 20.7032 47.0964 24.309 45.8923 28.0892C43.222 36.473 46.1433 43.2912 54.0841 47.0942C58.0682 49.0058 62.3298 49.5253 66.6479 49.7069Z" fill="black"/>
</g>
<defs>
<clipPath id="clip0">
<rect width="157" height="151" fill="white" transform="translate(0.777344)"/>
</clipPath>
</defs>
</svg>

<svg xmlns="http://www.w3.org/2000/svg" width="158" height="151" fill="none" viewBox="0 0 158 151"><g fill="#000" clip-path="url(#a)"><path d="M121.325 108.081c2.562-2.644 5.087-5.294 7.667-7.889a23.6 23.6 0 0 1 3.251-2.842c1.557-1.074 3.22-.961 4.293.045a3.194 3.194 0 0 1 .285 4.278c-1.975 2.814-4.162 5.482-6.322 8.161-1.032 1.28-2.206 2.447-3.496 3.869 3.041 2.684 5.88 5.149 8.666 7.672a16.6 16.6 0 0 1 2.718 2.91 4.73 4.73 0 0 1-.428 6.127c-1.536 1.53-4.011 1.644-6.105.147a18 18 0 0 1-2.409-2.285c-2.606-2.718-5.19-5.457-8.032-8.449-2.026 2.139-3.913 4.126-5.793 6.118a47 47 0 0 1-3.444 3.621 9.5 9.5 0 0 1-3.368 2.004c-3.187.921-5.649-1.594-4.564-4.737a12.7 12.7 0 0 1 2.699-4.131c2.235-2.473 4.659-4.768 6.987-7.156.536-.549.998-1.171 1.793-2.113-2.931-2.766-5.825-5.478-8.694-8.215a28.5 28.5 0 0 1-2.997-3.087 2.6 2.6 0 0 1-.004-3.405c.933-1.147 2.197-1.623 3.557-.943a27 27 0 0 1 4.554 2.72c3.049 2.379 5.976 4.916 9.186 7.58"/><path d="M112.411 80.1c4.26-.222 8.272-.948 12.169-.55 17.612 1.804 30.765 15.296 32.554 32.98 1.61 15.916-6.289 29.011-21.144 34.799-11.066 4.313-22.23 4.995-33.385.267-7.75-3.284-13.77-8.442-17.215-16.319-.172-.391-.415-.755-.673-1.219-3.263.176-6.46.356-9.66.521-17.619.9-35.235 1.855-52.858 2.654-4.759.216-9.537-.015-14.309-.112a12 12 0 0 1-3.26-.543c-3.125-.966-4.163-3.132-3.067-6.192A109.8 109.8 0 0 1 22.88 90.11c11.436-12.887 25.39-21.015 42.688-22.794 11.833-1.217 23.198.776 34.125 5.402a62 62 0 0 1 6.93 3.212 67 67 0 0 1 5.788 4.17m-8.776 4.638c-9.221-4.154-18.137-7.58-28.011-8.036-13.739-.636-26.17 2.832-37.03 11.32-11.67 9.122-20.22 20.84-27.132 33.838q-.45 1.001-.762 2.055c6.27.569 68.722-3.705 72.667-4.963.097-.463.244-.992.317-1.529a54.4 54.4 0 0 1 6.43-18.83 23.1 23.1 0 0 1 4.075-5.212c2.903-2.869 6.013-5.527 9.446-8.644m15.402 54.471a37.25 37.25 0 0 0 15.462-3.473 19.5 19.5 0 0 0 8.819-7.857c4.769-8.08 3.851-21.148-2.184-28.33-4.808-5.724-10.817-9.677-18.399-10.302-8.794-.727-16.268 2.395-21.348 9.698-5.088 7.318-6.315 15.791-5.38 24.551a14.2 14.2 0 0 0 4.984 9.178c5.144 4.592 11.259 6.496 18.046 6.535M67.66 59.572c-7.542-.31-14.93-1.88-21.423-6.503-7.335-5.221-13.126-14.936-8.58-27.066a38 38 0 0 1 4.617-8.807 86.6 86.6 0 0 1 8.66-10.124c7.071-7.16 19.138-8.935 27.66-3.69 11.178 6.879 17.674 17.207 18.95 30.243.759 7.739-2.676 14.331-8.804 19.251-6.079 4.88-13.232 6.522-21.08 6.696m-1.012-9.865c4.718-.12 9.305-.687 13.416-3.226 5.592-3.453 7.846-9.136 6.17-15.483-1.31-4.96-4.003-9.127-7.467-12.808-3.45-3.667-7.488-6.144-12.74-6.303-5.784-.176-10.161 2.939-14.19 6.33-2.952 2.486-4.74 6.092-5.945 9.872-2.67 8.384.251 15.202 8.192 19.005 3.984 1.912 8.246 2.431 12.564 2.613"/></g><defs><clipPath id="a"><path fill="#fff" d="M.777 0h157v151h-157z"/></clipPath></defs></svg>
